app/dist/common/images/spx-technologies.svg

<svg height="18" viewBox="0 0 18 18" width="18" xmlns="http://www.w3.org/2000/svg"><path d="m0 0h18v18h-18z" fill="#f0f3fa"/><g fill="#004c97"><path d="m4 5.25v-.44l.81-.81h.44v.44l-.81.81zm8.75 8.75v-.44l.81-.81h.44v.44l-.81.81zm-8.75-6.87v-.46l2.67-2.67h.46v.46l-2.67 2.67zm3.44 0v-.46l2.66-2.67h.45v.46l-2.65 2.67h-.45zm3.44 3.43v-.46l2.66-2.66h.46v.46l-2.66 2.66zm0 1.57v-.47l2.66-2.66h.46v.46l-2.66 2.66h-.46zm0 1.87v-.46l2.66-2.66h.46v.46l-2.66 2.66zm-5.32-6.87v-.47l2.66-2.66h.47v.46l-2.66 2.67zm-1.25 4.68v-.44l7.37-7.37h.45v.44l-7.37 7.37h-.46zm-.31 2.19v-.45l9.55-9.55h.45v.45l-9.55 9.55zm2.81-.94v-.44l6.75-6.74h.44v.44l-6.74 6.74h-.46z"/><path d="m5.88 4.94h.45l.64.63v.46h-.47l-.63-.63v-.46zm1.56 1.71h.48l.77.77v.48h-.49l-.77-.78v-.47zm-1.56 3.29h.47l.77.77v.48h-.47l-.77-.77zm1.56.31h.48l.77.77v.48h-.49l-.77-.77v-.48zm.94-.94h.47l.77.77v.48h-.47l-.77-.77zm2.5-2.5h.47l.77.77v.48h-.47l-.77-.77zm.93 4.07h.48l.77.77v.47h-.48l-.77-.77zm-1.73-6.88h.45l3.45 3.48v.45h-.45l-3.45-3.47zm2.67.94h.48l.77.77v.48h-.48l-.77-.77zm-3.44 1.76h.45l.72.72v.46h-.45l-.72-.73zm1.88 1.68h.47l2.34 2.32v.48h-.48l-2.32-2.33v-.47z"/><path d="m11.81 4h.48l.77.77v.48h-.48l-.77-.77zm-2.65 1.1h.48l.6.6.01.49h-.48l-.61-.62zm-2.54-1.1h.45l1.64 1.64v.45h-.45l-1.64-1.64z"/></g></svg>

<!-- by TradingView --><svg width="18" height="18" viewBox="0 0 18 18" xmlns="http://www.w3.org/2000/svg"><path fill="#F0F3FA" d="M0 0h18v18H0z"/><path d="M4 5.25v-.44L4.81 4h.44v.44l-.81.81H4ZM12.75 14v-.44l.81-.81H14v.44l-.81.81h-.44ZM4 7.13v-.46L6.67 4h.46v.46L4.46 7.13H4ZM7.44 7.13v-.46L10.1 4h.45v.46L7.9 7.13h-.45ZM10.88 10.56v-.46l2.66-2.66H14v.46l-2.66 2.66h-.46ZM10.88 12.13v-.47L13.54 9H14v.46l-2.66 2.66h-.46ZM10.88 14v-.46l2.66-2.66H14v.46L11.34 14h-.46ZM5.56 7.13v-.47L8.22 4h.47v.46L6.03 7.13h-.47ZM4.31 11.81v-.44L11.68 4h.45v.44l-7.37 7.37H4.3ZM4 14v-.45L13.55 4H14v.45L4.45 14H4ZM6.81 13.06v-.44l6.75-6.74H14v.44l-6.74 6.74H6.8Z" fill="#004C97"/><path d="M5.88 4.94h.45l.64.63v.46H6.5l-.63-.63v-.46ZM7.44 6.65h.48l.77.77v.48H8.2l-.77-.78v-.47ZM5.88 9.94h.47l.77.77v.48h-.47l-.77-.77v-.48ZM7.44 10.25h.48l.77.77v.48H8.2l-.77-.77v-.48ZM8.38 9.31h.47l.77.77v.48h-.47l-.77-.77v-.48ZM10.88 6.81h.47l.77.77v.48h-.47l-.77-.77v-.48ZM11.81 10.88h.48l.77.77v.47h-.48l-.77-.77v-.47ZM10.08 4h.45l3.45 3.48v.45h-.45l-3.45-3.47V4ZM12.75 4.94h.48l.77.77v.48h-.48l-.77-.77v-.48ZM9.31 6.7h.45l.72.72v.46h-.45l-.72-.73V6.7ZM11.19 8.38h.47L14 10.7v.48h-.48L11.2 8.85v-.47Z" fill="#004C97"/><path d="M11.81 4h.48l.77.77v.48h-.48l-.77-.77V4ZM9.16 5.1h.48l.6.6.01.49h-.48l-.61-.62V5.1ZM6.62 4h.45l1.64 1.64v.45h-.45L6.62 4.45V4Z" fill="#004C97"/></svg>
